X:1
T:Merry go Round Life
T:Merry go Round of Life
T:Duet, Cello and Piano
T:Joe Hisaishi
T:Howl's Moving Castle
C:Joe Hisaishi
Z:Howl's Moving Castle
%%score 1 { 2 | 3 }
L:1/8
Q:1/4=120
M:3/4
K:Bb
V:1 bass nm="Violonchelo" snm="Vc."
V:2 treble nm="Piano" snm="Pno."
V:3 treble-8 
V:1
 z6"^Expressivo" | z6 | z6 | z6 | z6 | z6 | z6 | z6 | z6 | z6 | z6 | z6 | z6 | z6 | z6 | z6 | z6 | %17
w: |||||||||||||||||
 z6 | z6 | z6 | z6 |!pp! !tenuto![C,E,]6- | [C,E,]6 | !tenuto![^F,,D,]6- | [F,,D,]6 | z6 | %26
w: |||||||||
"^Tempo di valse" z6 | z6 | z6 |!f! !tenuto!D,2 !tenuto!G,2 !tenuto!B,2 | !>![G,D]4 D2 | %31
w: |||||
 !>![_G,C]2 B,2 A,2 | !>!B,6 | (G,,2 B,,2) D,2 | G,4 G,2 | G,2 F,2 E,2 | F,6 |!f! A,,2 D,2 F,2 | %38
w: |||||||
 A,4 G,2 | (F,2 =E,2 F,2) | G,4 F,2 | =E,4 D,2 | (C,2 B,,2 C,2) | D,2 C,2 G,,2 | A,,6 | %45
w: |||||||
 D,2 G,2 B,2 | D4 D2 | C2 B,2 A,2 | B,6 | G,,2 B,,2 D,2 | G,4 G,2 | G,2 A,2 F,E, | F,6 | %53
w: ||||||||
 A,,2 D,2 F,2 | A,4 G,2- | G,2 F,=E, _E,=E, | G,4 F,2- | F,2 =E,D, ^C,D, | D,2 C,D, C,B,, | %59
w: ||||||
 A,,3 =B,, ^C,2 | [A,,D,]6 | A,2 ^F,2 D,2 | z2 D,2 =E,2 | ^F,2 D,2 z2 |!mp! G,6 | A,2 G,2 F,2 | %66
w: |||||||
 D,2 E,2 F,2 | C,4 B,,2 | G,6 | A,2 G,2 A,2 | B,6 | z6 |!ff! (3D,=E,D, ^C,2 D,2 | F,2 =E,2 D,2 | %74
w: ||||||||
 ^C,4 =E,2 | A,,4 A,2 | A,4 A,2 | A,2 G,2 F,2 | G,6 | z4 z2 | z2!mp! E,2 D,2 | C,2 B,,2 A,,2 | %82
w: ||||||||
 G,,6- | G,,2 A,,2 B,,2 | C,4 C,2 | C,2 D,2 =E,2 | =E,2!mf! (3(=E_ED (3_DC=B,) | C,2!f! C,2 D,2 | %88
w: ||||* Slide * * * * *||
 =E,2 _E,2 =E,2 | G,2 F,2 =E,2 | D,2 ^C,2 D,2 | =E,4 A,2 | C4 B,2 |!>(! A,4 G,2!>)! | %94
w: ||||||
 ^F,2!p! D,4- | D,6- | D,6 |!<(! D,2 G,2 B,2!<)! |!f! D4 D2 | C2 B,2 A,2 | B,6 | G,,2 B,,2 D,2 | %102
w: ||||||||
 G,4 G,2 | G,2 A,2 F,E, | F,6 | z6 | A,4 G,2- | G,2 F,_F, E,F, | G,4 F,2- | F,2 =E,D, ^C,D, | %110
w: ||||||||
 D,2 C,D, C,B,, | A,,3 =B,, ^C,2 | D,2 D,=E, D,E, | ^F,2 D,2 D,2 | z2 ^F,=E, D,E, | !fermata!^F,6 | %116
w: ||||||
 z6 | z6 | z6 | z6 | z4 !fermata!D,2 | z6 | z6 | z6 |!pp!!<(! _A,6-!<)! | A,6 | F,2 E,2 D,2 | %127
w: |||||||||||
 !fermata!_C,6 |[Q:3/4=90] z6 | z6 | z6 | z6 | z6 | z6 | z6 | z6 |!f! .D,2 .G,2 .B,2 | .D4 .C2 | %138
w: |||||||||||
 .B,2 .A,2 .B,2 | .C4 .B,2 | .A,2 .G,2 ._G,2 | .G,4 .G,2 | .G,2 .F,2 .C,2 | D,4 z2"^144" | z6 | %145
w: |||||||
 z6 | z6 | z6 | z6 | z6 | z6 | z6 |!f! .D,2 .G,2 .B,2 | .D4 .C2 | .B,2 .A,2 .B,2 | .C4 .B,2 | %156
w: |||||||||||
 .A,2 .G,2 .^F,2 | .G,2 .F,2 .E,2 | .D,2 .=E,2 .^F,2 | !fermata!G,4 z2 |[Q:1/4=120]"^\n" E,4 D,2 | %161
w: |||||
 C,2 B,,2 A,,2 | B,,2 C,2 D,2 | F,,4 F,,2 | E,4 D,2 | C,2 B,,2 C,2 | D,6 | z6 | D2 ^C2 D2 | %169
w: ||||||||
 F2 =E2 D2 | ^C4 =E2 | A,4 A,2 | F4 F2 | F2 =E2 D2 | z A, B,C B,A, | %175
w: ||||||
 (3G,^F,=E, (3D,^C,=B,, (3A,,C,G, | ^F,2!mp! E,2 D,2 | C,2 B,,2 A,,2 | G,,6- | G,,2 A,,2 B,,2 | %180
w: |||||
 C,4 C,2 | C,2 D,2 =E,2 | =E,2!mf! (3=E_ED (3_DC=B, | C,2!f! C,2 D,2 | =E,2 _E,2 =E,2 | %185
w: |||||
 G,2 F,2 =E,2 | D,2 ^C,2 D,2 | =E,4 A,2 | C4 B,2 |!>(! A,4 G,2!>)! |"^rit." ^F,2!p! D,4- | D,6- | %192
w: |||||||
 D,6- |!>(! D,6!>)! |"^Molto sostenuto"[Q:1/4=60]"^\n"!f! E,2 _A,2 =B,2- | [=E,B,]6 | %196
w: ||||
[K:C]"^A tempo\n"[Q:1/4=140]"^\n" E,,2 A,,2 C,2 | E,4 E,2 | D,2 C,2 B,,2 | C,6 | %200
w: ||||
 A,,E,, A,,C, E,A, | A,4 A,2 | A,2 G,2 F,2 | G,6 | C,2 E,2 G,2 | B,4 A,2 | G,2 _G,2 =G,2 | %207
w: |||||||
 A,4 G,2 | _G,4 E,2 | D,2 C,2 D,2 | E,2 D,2 A,,2 | B,,6 | E,-D, C,B,, A,,^G,, | z2 CB, CD | %214
w: |||||||
 B,2 z4 | z2 A,-^G, A,B, | A,3 E,3 | z2 A,,-B,, C,D, | B,,2 z2 z2 | z2 G,,^F,, G,,A,, | %220
w: ||||||
 B,,G,, B,,C, E,G, | z2 A,^G, A,E | ^D4 z2 | z2 ^F,=F, ^F,^F | E4 z2 | E2 DE DC | B,3 ^C ^D2 | %227
w: |||||||
 E6- | E6- | E6- |[Q:1/4=80] E2 z4 | A,,3 E, B,C | B,4 ^D2- | D6 |"^a tempo"[Q:1/4=130] E6- | E6 | %236
w: |||||||||
 E,,^D,, E,,^F,, ^G,,C, | B,,^A,, B,,^D, E,^F, | ^G,^F, G,B, C^D | E2 z4 | ^G,6 |] %241
w: |||||
V:2
 [Bd][ce] [Bd][ce] [Bd][ce] | [Ac][Bd] [Ac][Bd] [Ac][Bd] | [GB][Ac] [GB][Ac] [GB][Ac] | %3
 [^FA]/[EG]/[DF]- [DF]4 | z4 !arpeggio!!fermata![^F,A,D^F]2 | D2 G2 B2 | !arpeggio![EGBd]4 d2 | %7
 c2 B2 A2 | !arpeggio![DGB]6 | z2 z G Bd | !arpeggio![GBdg]4 g2 | g2 f2 e2 | !arpeggio![Adf]6 | %13
 z2 z A df | [Bda]4 g2 | [G_df]2 [Gd=e]2 [Gdf]2 | [Adg]4 f2 | [A=e]4 d2 | [DFc]2 B2 c2 | %19
 [=EGd]2 c2 G2 | A3 D GA | z2 a/c'/b- b2 | a z z4 | D6 | a/c'/b- b2 ag | ^fe !fermata!d4 | %26
[K:treble] z6 | z6 | z6 | z6 |!p!"^pizz." z2 gf g2 | z2 fe d2 | z A B^c df | G2 B2 d2 | g4 g2 | %35
 g2 f2 e2 | f6 |!f! A2 d2 f2 | a4 g2 | f2 _f2 =f2 | g4 f2 | _f4 d2 | c2 B2 c2 | d2 c2 G2 | A6 | %45
 z6 |!mp! z2 c4 | z2 c4 | z D3 D2 | G2 B2 d2 | g4 g2 | g2 a2 fe | f6 | z A3 A2 | z D3 D2 | %55
 z ^c3 c2 | z A3 A2 | z A3 A2 | z2 GA GF | =E3 ^F A2 | A6- | A6 | z6 | z4!mf!"^giocoso" d2 | %64
 [ce]4 [Bd]2 | [Ac]2 [GB]2 [FA]2 | [GB]2 [Ac]2 [Bd]2 | [DF]2 z2 z2 | [ce]4 [Bd]2 | %69
 [Ac]2 [GB]2 [Ac]2 | [Bd]6 |[K:treble] z2!p! z2"^espressivo" d2 | (3d=ed (A^c) .d.e | %73
 (f=e) .f.g .a.f | z2 (g^f) .g.a | (gf) .=e.d .^c.A | z2 (a^g) .a.b | (ab) .g.a .f.g | %78
 .=e.f .g.f .e.d | .^c!<(!!tenuto!A !tenuto!=B!<(!!tenuto!c !tenuto!=e!tenuto!g!<)! | %80
!f! [d-^f]2!<)! d2 [df]2 | [d^f]2 [=eg]2 [fa]2 | [gb]2 (3f'=e'_e' (3d'_d'c' | b2 (3ba_a (3g^f=f | %84
 [c=e]4 [ce]2 | [c=e]2 [df]2 [eg]2 | [fa]2 (3g^f=f (3=e_ed | c2 g2 f2 | [=B=e]2 _e2 =e2 | %89
 g2 f2 =e2 | [Ad]2 _d2 =d2 | =e4 a2 | [cegc']4 b2 | a4 g2 | ^fa (3cdc .B2 | z2 (3BcB .A2 | %96
 z2 (3GAG!p! .^F2 | z2 [A,CEG]2 [A,CEG]2 | z2!mp! ba bc' | a2 z4 | z2 g^f ga | G2 B2 d2 | g4 g2 | %103
 g2 a2 fe | f6 | af dA df | a4 g2- | g2 f=e _e=e | g4 f2- | f2 =ed ^cd | d2 cd cB | A3 .=b .^c'2 | %112
[K:treble] z2 (3ag^f (3=ed^c |[K:treble] (3d'^c'=b (3ag^f (3=ed^c | (3d'^c'=b (3ag^f (3=ed^c | d6 | %116
!pp! [Bd][ce] [Bd][ce] [Bd][ce] |!<(! [Ac][Bd] [Ac][Bd] [Ac]!<)![Bd] | [GB][Ac] [GB][Ac] [GB][Ac] | %119
 [^FA]/[EG]/[DF]- [DF]4 | E4 !arpeggio!!fermata![E^FAc]2 | [ce]!<(![df] [ce][df] [ce]!<)![df] | %122
 [=Bd][ce] [Bd][ce] [Bd][ce] | [G=B][_Ac] [GB][Ac] [GB][Ac] | [G=B][F_A] [EG][DF] [EG][FA] | %125
 [G=B]!>(![F_A] [EG][DF] [EG][FA] | [G=B]!>)![F_A] [EG]4 | !arpeggio!!fermata![=B,DFG=Bdf]4 z2 | %128
!p! .G2 .c2 .e2 | .[Gceg]2 z2 .g2 | .[F=Bf]2 .e2 .d2 | [GBe]4 z2 | .c2 .e2 .g2 | %133
 .[ce_ac']2 z2 .c'2 | .[dfc']2 .b2 _a2 | [dgb]4 z2 | z6 | .[EG]2 z4 | .[D^F]2 z4 | .[DF]2 z4 | %140
 .[B,D]2 z4 | .[A,G]2 z4 | .[EG]2 z4 | [D^F]4 z2 | .G2 .c2 .e2 | .[Gceg]2 z2 .g2 | %146
 .[G=Bf]2 .e2 .d2 | [GBe]4 z2 | .c2 .e2 .g2 | [ce_ac']2 z2 c'2 | [dfc']2 b2 _a2 | [dgb]4 z2 | %152
!f! .D2 .G2 .B2 | .d4 .c2 | .B2 .A2 .B2 | .c4 .B2 | .A2 .G2 .^F2 | .G2 .F2 .E2 | .D2 .=E2 .^F2 | %159
 !fermata!G4 [Dd]2 | [GBe]4 [Fd]2 | [Ec]2 [DB]2 [CA]2 | [DB]2 [Ec]2 [Fd]2 | F4 F2 | [Ge]4 [Fd]2 | %165
 [Ec]2 [DB]2 [Ec]2 | [Fd]2!mp! .d.d .d.d | .d2 .d.d .d.d | c2 A^c d=e | z =e fg af | z2 g^f ga | %171
 z f =ed ^cA | z2 A^G AB | AG F=E FD | =ef gf ed | ^cA =Bd =eg |!f! [d-^f]2 d2 [df]2 | %177
 [d^f]2 [=eg]2 [fa]2 | [gb]2 (3f'=e'_e' (3d'_d'c' | b2 (3ba_a (3g^f=f | [c=e]4 [ce]2 | %181
 [c=e]2 [df]2 [eg]2 | [fa]2 (3g^f=f (3=e_ed | c2 g2 f2 | [=B=e]2 _e2 =e2 | g2 f2 =e2 | %186
 [Ad]2 _d2 =d2 | =e4 a2 | [cegc']4 b2 | a4 g2 | ^fa (3cdc .B2 | z2 (3BcB .A2 | z2 (3GAG!p! .^F2 | %193
 D2 [E^FAc]2 [FA]2 |!f! [Ee]2 [_A_a]2 [=B=b]2- | [Bb]6 |[K:C] z6 | z2 [cc'][Bb] [cc'][dd'] | %198
 [Bb]2 z4 | z2 [Aa][^G^g] [Aa][Bb] | [Aa]2 z4 | a4 a2 | a2 g2 f2 | g2 ed ef | .g.f .e.d .c.B | %205
 b4 a2 | g2 ^f2 g2 | a4 g2 | ^f4 e2 | d2 c2 d2 | e2 d2 A2 | B6 | [Ee]2 [Aa]2 [cc']2 | %213
 [ee']2 [ee']2 [ee']2 | [dd']2 d'b d'b | c'b ae cB | [A,A]2 [Cc]2 [Ee]2 | [Acfa]3 [Acfa]2 [Acfa] | %218
 [Acfa]2 [Bb]2 [Gg][Ff] | z2 BA Bc | BG Bc eg | b4 a2 | z2 g^f =f^f | a4 g2 | z2 ^fe ^de | %225
 e'2 d'e' d'c' | b3 ^c' ^d'2 | (3e'^d'^c' (3ba^g (3^f=fe | (3e'^d'^c' (3ba^g (3=g^fe | %229
 (3e'^d'^c' (3ba^g (3^f=fe | z2 ^fe ^de | e3 d c2 | B3 ^c ^d2- | d6 | e6- | e6 | %236
[K:treble] E^D E^F ^Gc | B^A B^d e^f | ^g^f gb c'^d' | e'2 !fermata!z4 |[K:treble] b6 |] %241
V:3
 z6 | z6 | z6 | z6 | D,A, D4 | z4 z2 | C,2 [EBd]4 | D,2 [^Fce]4 | G,2 [FBd]4 | G2 [ABd]4 | %10
w: ||||||||||
 C,2 [GBe]4 | F,2 [Fce]4 | B,2 [FAd]4 | F,2 [Ad]4 | =E,2 [Bd]4 | A,2 [G^c]4 | D2 [Ad]4 | C2 [FA]4 | %18
w: ||||||||
 B,2 [FB]4 | A,2 [=EG]4 | D,2 [DGc]4 | [D^FAc]6- | [DFAc]6 | [D^FAc]6- | [DFAc]6 | z6 | %26
w: ||||||||
"^doppio movimento"!ped! G,2 [GBd]2 [GBd]2!ped-up! |!ped! D,2 [GBd]2 [GBd]2!ped-up! | %28
w: ||
!ped! G,2 [GBd]2 [GBd]2!ped-up! |!ped! D,2 [^FAd]2 [FAe]2!ped-up! | %30
w: ||
!ped! C,2 [GBde]2 [GBde]2!ped-up! |!ped! D,2 [^Fce^f]2 [Fcef]2!ped-up! | %32
w: ||
!ped! G,2 [GBdf]2 [GBdf]2!ped-up! |!ped! G,2 [GBdf]2 [GBdf]2!ped-up! | %34
w: ||
!ped! C,2 [Bceg]2 [Bceg]2!ped-up! |!ped! F,2 [Acef]2 [Acef]2!ped-up! | %36
w: ||
!ped! B,2 [Adf]2 [Adf]2!ped-up! |!ped! F,2 [Adf]2 [Adf]2!ped-up! | %38
w: ||
!ped! =E,2 [Bda]2 [Bdg]2!ped-up! |!ped! A,2 [B_dg]2 [Bdf]2!ped-up! | %40
w: ||
!ped! [D,D]2 [Adg]2 [Adf]2!ped-up! |!ped! [C,C]2 [Ac=e]2 [Acd]2!ped-up! | %42
w: ||
!ped! [B,,B,]2 [FBd]2 [FAd]2!ped-up! |!ped! [A,,A,]2 [Gc=e]2 [Gce]2!ped-up! | %44
w: ||
!ped! [D,D]2 [Acdg]2"^poco rit." [Acdg]2!ped-up! |!ped! [D,D]2 [Ac]2 [Ac^f]2!ped-up! | %46
w: ||
"^a tempo"!ped! C,2 [GBe]2 [GBe]2!ped-up! |!ped! D,2 [Bd^f]2 [Adf]2!ped-up! | %48
w: ||
!ped! G,2 [Bdf]2 [Bdf]2!ped-up! |!ped! [F_Ac]3!ped! [B,FA]3!ped-up! | %50
w: ||
!ped! E,2 [Bdg]2 [Bdg]2!ped-up! |!ped! E,2 [Acf]2 [Acf]2!ped-up! |!ped! D,2 [Acf]2 [Acf]2!ped-up! | %53
w: |||
!ped! G,,2 [Bdfg]2 [Bdfg]2!ped-up! |!ped! =E,2 [Bdfa]2 [Bdfg]2!ped-up! | %55
w: g * *||
!ped! A,,2 [B_df]2 [Bdg]2!ped-up! |!ped! D,2 [Acdg]2 [Acdf]2!ped-up! | %57
w: a * *||
!ped! C,2 [Adf]2 [Adf]2!ped-up! |!ped! B,,2 [Bdf]2 [Bdf]2!ped-up! | %59
w: ||
!ped! A,,2 [A^c=e]2 [Ace]2!ped-up! |!ped! D,2 [Ad^f]2 [Adf]2!ped-up! | %61
w: ||
!ped! A,,2 [Ad^f]2 [Adf]2!ped-up! |!ped! D,2 [Ad^f]2 [Adf]2!ped-up! | %63
w: ||
!ped! A,,2 [Ad^f]2 [Adf]2!ped-up! |!ped! F,2 [Beg]2 [Beg]2!ped-up! |!ped! F,2 [Bc]2 [Ac]2!ped-up! | %66
w: |||
!ped! B,2 [Bce]2 [Bdf]2!ped-up! |!ped! B,2 [Bdf]2 [Bdf]2!ped-up! |!ped! F,2 [Beg]2 [Beg]2!ped-up! | %69
w: |||
!ped! F,2 [Ac]2 [Ace]2!ped-up! |!ped! B,2 [Bdf]2 [Bdf]2!ped-up! |!ped! B,2 [Bdf]2 [Bdf]2!ped-up! | %72
w: |||
 [D,D]2 D2 D2 | D2 [Adf]2 [Adf]2 | [=E,=E]2 E2 E2 | =E2 [A^c=e]2 [Ace]2 | [D,D]2 D2 D2 | %77
w: |||||
 D2 [Adf]2 [Adf]2 | [=E,=E]2 E2 E2 | A,2 [GA^c=e]2 [=EAce]2 |!ped! D,2 [Ace]2 [Acd]2!ped-up! | %81
w: ||||
!ped! D,2 [Ac=e]2 [Acd]2!ped-up! |!ped! G,2 [Bdf]2 [Bdf]2!ped-up! | %83
w: ||
!ped! G,2 [Bdf]2 [Bdf]2!ped-up! |!ped! C,2 [Bc=e]2 [Bcg]2!ped-up! | %85
w: ||
!ped! C,2 [Bcf]2 [Bc=e]2!ped-up! |!ped! F,2 [Ac=e]2 [Ace]2!ped-up! | %87
w: ||
!ped! F,2 [Acg]2 [Acf]2!ped-up! |!ped! =B,,2 [^F=B=e]2 [FB_e]2!ped-up! | %89
w: ||
!ped! =E,2 [_A=Bf]2 [AB=e]2!ped-up! |!ped! A,,2 [GA_d=e]2 [GAde]2!ped-up! | %91
w: ||
!ped! A,,2 [G_d=e]2 [Gde]2!ped-up! |!ped! C,2 [Gce]2 [Gcd]2!ped-up! | %93
w: ||
!ped! C,2 [Gce]2 [GBe]2!ped-up! |"^rit.""^dim."!ped! D,2 [Ad^f]2 [Adf]2!ped-up! | %95
w: ||
!ped! D,2 B2 c2!ped-up! |!ped! D,2 A2 B2!ped-up! | [D,D]2 z4 | %98
w: |||
"^accel."!ped! C,2 [GBe]2 [GBe]2!ped-up! |"^a tempo"!ped! D,2 [Bd^f]2 [Adf]2!ped-up! | %100
w: ||
!ped! G,2 [Bdf]2 [Bdf]2!ped-up! |!ped! [F_Ac]3 [B,FA]3!ped-up! |!ped! E,2 [Bdg]2 [Bdg]2!ped-up! | %103
w: |||
!ped! E,2 [Acf]2 [Acf]2!ped-up! |!ped! D,2 [Acf]2 [Acf]2!ped-up! |!ped! G,2 [Bdf]2 [Bdf]2!ped-up! | %106
w: |||
!ped! =E,2 [Bdfg]2 [Bdfg]2!ped-up! |!ped! A,2 [B_df]2 [Bdg]2!ped-up! | %108
w: ||
!ped! D,2 [Acdg]2 [Acdf]2!ped-up! |!ped! C,2 [Adf]2 [Adf]2!ped-up! | %110
w: ||
!ped! B,,2 [Bdf]2 [Bdf]2!ped-up! |!ped! A,,2 [A_d=e]2 [Ade]2!ped-up! | %112
w: ||
!ped! D,2 [Ad^f]2 [Adf]2!ped-up! |[K:bass]!ped! A,,,2 [A,D^F]2 [A,DF]2!ped-up! | %114
w: ||
!ped! D,,2 [A,D^F]2 [A,DF]2!ped-up! | %115
w: |
[K:treble-8]"^mezzo movimento"!ped! A,,2 [Ad^f]2 [Adf]2-!ped-up! | [Adf]2 z2 z2 | z4 z2 | z4 z2 | %119
w: ||||
 z4 z2 | D,A, CE !arpeggio!!fermata![^FAc]2 | z4 z2 | z4 z2 | z4 z2 | z4 z2 | z4 z2 | z4 z2 | %127
w: ||||||||
 !arpeggio!!fermata![G,,=B,DF]4 z2 | z4 z2 | .[F_Ac]2 z4 | .[G,F]2 z4 | [CGc]4 z2 | z4 z2 | %133
w: ||||||
 .[F_Ac]2 z4 | [B,_A]4 z2 | [EGBd]4 z2 | z6 | z6 | z6 | z6 | z6 | z6 | z2 z4 | z2 z4 | z4 z2 | %145
w: ||||||||||||
 .[F_Ac]2 z4 | .[G,F]2 z4 | [CGc]4 z2 | z4 z2 | [F_Ac]2 z4 | [B,_A]4 z2 | [EGBd]4 z2 | z6 | %153
w: ||||||||
 [C,C]6 | [D,D]6 | [G,G]6 | [F,F]6 | [E,E]6 | [D,D]6 | [G,G]6 |!mp! F,C GB- B2 | F,6 | B,F Bc BF | %163
w: ||||||||||
 B,F Bc BF | F,C GB- B2 | F,6 | B,F Bc BF | B,F Bc BF |!ped! D2!ped-up! [Adf]2 [Adf]2 | %169
w: ||||||
!ped! A,2 [Adf]2 [Adf]2!ped-up! |!ped! =E2 [A_d=e]2 [Ade]2!ped-up! | %171
w: ||
!ped! A,2 [A_d=e]2 [Ade]2!ped-up! |!ped! D2 [Adf]2 [Adf]2!ped-up! | %173
w: ||
!ped! A,2 [Adf]2 [Adf]2!ped-up! |!ped! =E2 [A_d=e]2 [Ade]2!ped-up! | %175
w: ||
!ped! A,2 [A_d=e]2 [Ade]2!ped-up! |!ped! D,2 [Ace]2 [Acd]2!ped-up! | %177
w: ||
!ped! D,2 [Ac=e]2 [Acd]2!ped-up! |!ped! G,2 [Bdf]2 [Bdf]2!ped-up! | %179
w: ||
!ped! G,2 [Bdf]2 [Bdf]2!ped-up! |!ped! C,2 [Bc=e]2 [Bcg]2!ped-up! | %181
w: ||
!ped! C,2 [Bcf]2 [Bc=e]2!ped-up! |!ped! F,2 [Ac=e]2 [Ace]2!ped-up! | %183
w: ||
!ped! F,2 [Acg]2 [Acf]2!ped-up! |!ped! =B,,2 [^F=B=e]2 [FB_e]2!ped-up! | %185
w: ||
!ped! =E,2 [_A=Bf]2 [AB=e]2!ped-up! |!ped! A,,2 [GA_d=e]2 [GAde]2!ped-up! | %187
w: ||
!ped! A,,2 [G_d=e]2 [Gde]2!ped-up! |!ped! C,2 [Gce]2 [Gcd]2!ped-up! | %189
w: ||
!ped! C,2 [Gce]2 [GBe]2!ped-up! |"^rit.""^dim."!ped! D,2 [Ad^f]2 [Adf]2!ped-up! | %191
w: ||
!ped! D,2 B2 c2!ped-up! |!ped! D,2 A2 B2!ped-up! | D2 [^Fce]2 [Fe]2 | z6 | [=E,=E]6 |[K:C] z6 | %197
w: ||||||
 D2 [Ace]2 [Ace]2 | E2 [^Gde]2 [Gde]2 | A,2 [Ace]2 [Ace]2 | A,2 [Ace]2 [Ace]2 | D2 [Acf]2 [Acf]2 | %202
w: |||||
 G2 [Bdf]2 [Bdf]2 | C2 [GBe]2 [GBe]2 | G,2 [GBe]2 [GBe]2 | [^F,^F]2 [Ace]2 [Ace]2 | %206
w: ||||
 [B,,B,]2 [^FA^d]2 [FAd]2 | [E,E]2 [GBe]2 [GBe]2 | [D,D]2 [GBe]2 [GBe]2 | [C,C]2 [Gce]2 [Gce]2 | %210
w: ||||
 [B,,B,]2 [^FAe]2 [FAe]2 | [E,E]2 [Bdfa]2 [Bdfa]2 | E2 [Be^g]2 [Beg]2 | D2 [Acf]2 [Acf]2 | %214
w: ||||
 E2 [^Gde]2 [Gde]2 | A,2 [Ace]2 [Ace]2 | [Ace]2- [Ace] [GAce]3 | D2 [Acf]2 [Acf]2 | %218
w: ||||
 G2 [Bdf]2 [Bdf]2 | C2 [EGB]2 [GBe]2 | G2 [GBe]2 [GBe]2 | ^F2 [Ace]2 [Ace]2 | B,2 [^FA^d]2 [FAd]2 | %223
w: |||||
 E2 [GBe]2 [GBe]2 | D2 [GBe]2 [GBe]2 | C2 [Gce]2 [Gce]2 | B,2 [^FA^d]2 [FAd]2 | %227
w: ||||
 E,2 [^GBe]2 [GBe]2 | B,2 [^GBe]2 [GBe]2 | E,2 [^GB]2 [GB]2 | [E,,E,]2 z4 | z6 | z6 | z4 [B,B]2 | %234
w: |||||||
 [E,,E,]2 [^GBe]2 [GBe]2 | [E,,E,]2 [^GBe]2 [GBe]2 | [B,E^GB]2 z2 [CFAc]2 | [B,E^GB]2 z2 [CFAc]2 | %238
w: ||||
 [B,E^GB]2 z2 [CFAc]2 | [B,E^GB]2 z4 |[K:treble] !arpeggio![B,E^G]6 |] %241
w: |||

